Yaru++/status/16/dropboxstatus-logo.svg

<svg height="16" width="16" xmlns="http://www.w3.org/2000/svg"><path d="m4.4483119 1.2932473-4.4396103 2.6637662 3.5516883 2.6499145-3.5603899 2.6705147 4.4483119 2.6708693 3.5516881-2.6637673-4.4396101-2.6637652 4.4396101-2.663766 4.439611 2.677618-4.439611 2.6499132 3.551688 2.6637673 4.448312-2.684544-3.560567-2.6460075 3.551688-2.663766-4.43961-2.6637662-3.5516877 2.6499146-3.551689-2.6499146zm3.5516881 8.8792197-3.5516881 2.663768-.887922-.532408v.532408l4.4396101 2.663765 4.439611-2.663765v-.53588l-.887923.53588z" fill="#fff" opacity=".99" stroke-width=".727273"/></svg>

<?xml version="1.0" encoding="UTF-8" standalone="no"?>
<svg
   xmlns:dc="http://purl.org/dc/elements/1.1/"
   xmlns:cc="http://creativecommons.org/ns#"
   xmlns:rdf="http://www.w3.org/1999/02/22-rdf-syntax-ns#"
   xmlns:svg="http://www.w3.org/2000/svg"
   xmlns="http://www.w3.org/2000/svg"
   xmlns:sodipodi="http://sodipodi.sourceforge.net/DTD/sodipodi-0.dtd"
   xmlns:inkscape="http://www.inkscape.org/namespaces/inkscape"
   height="16"
   width="16"
   version="1.1"
   id="svg4"
   sodipodi:docname="dropboxstatus-logo.svg"
   inkscape:version="0.92.5 (2060ec1f9f, 2020-04-08)">
  <metadata
     id="metadata10">
    <rdf:RDF>
      <cc:Work
         rdf:about="">
        <dc:format>image/svg+xml</dc:format>
        <dc:type
           rdf:resource="http://purl.org/dc/dcmitype/StillImage" />
        <dc:title></dc:title>
      </cc:Work>
    </rdf:RDF>
  </metadata>
  <defs
     id="defs8" />
  <sodipodi:namedview
     pagecolor="#ffffff"
     bordercolor="#666666"
     borderopacity="1"
     objecttolerance="10"
     gridtolerance="10"
     guidetolerance="10"
     inkscape:pageopacity="0"
     inkscape:pageshadow="2"
     inkscape:window-width="1920"
     inkscape:window-height="1016"
     id="namedview6"
     showgrid="false"
     inkscape:zoom="26.1875"
     inkscape:cx="8.725537"
     inkscape:cy="16"
     inkscape:window-x="0"
     inkscape:window-y="27"
     inkscape:window-maximized="1"
     inkscape:current-layer="svg4" />
  <path
     d="M 4.4483119,1.2932473 0.0087016,3.9570135 3.5603899,6.606928 0,9.2774427 4.4483119,11.948312 8,9.2845447 3.5603899,6.6207795 8,3.9570135 12.439611,6.6346315 8,9.2845447 11.551688,11.948312 16,9.263768 12.439433,6.6177605 15.991121,3.9539945 11.551511,1.2902283 7.9998233,3.9401429 4.4481343,1.2902283 Z M 8,10.172467 4.4483119,12.836235 3.5603899,12.303827 v 0.532408 L 8,15.5 12.439611,12.836235 v -0.53588 l -0.887923,0.53588 z"
     id="path2"
     inkscape:connector-curvature="0"
     style="opacity:0.98999999;fill:#ffffff;stroke-width:0.72727281" />
</svg>
